assets/img/svg/info.svg

<svg width="22" height="22" viewBox="0 0 22 22" fill="none" xmlns="http://www.w3.org/2000/svg">
<path d="M11 1.375C5.68477 1.375 1.375 5.68477 1.375 11C1.375 16.3152 5.68477 20.625 11 20.625C16.3152 20.625 20.625 16.3152 20.625 11C20.625 5.68477 16.3152 1.375 11 1.375ZM11 16.5859C10.5252 16.5859 10.1406 16.2014 10.1406 15.7266C10.1406 15.2518 10.5252 14.8672 11 14.8672C11.4748 14.8672 11.8594 15.2518 11.8594 15.7266C11.8594 16.2014 11.4748 16.5859 11 16.5859ZM12.3514 11.8701C12.1568 11.9453 11.9894 12.0773 11.871 12.249C11.7525 12.4207 11.6886 12.624 11.6875 12.8326V13.3203C11.6875 13.4148 11.6102 13.4922 11.5156 13.4922H10.4844C10.3898 13.4922 10.3125 13.4148 10.3125 13.3203V12.8584C10.3125 12.3621 10.4564 11.8723 10.74 11.4641C11.0172 11.0645 11.4039 10.7594 11.8594 10.5854C12.5898 10.3039 13.0625 9.6916 13.0625 9.02344C13.0625 8.07598 12.1365 7.30469 11 7.30469C9.86348 7.30469 8.9375 8.07598 8.9375 9.02344V9.18672C8.9375 9.28125 8.86016 9.35859 8.76562 9.35859H7.73438C7.63984 9.35859 7.5625 9.28125 7.5625 9.18672V9.02344C7.5625 8.1791 7.93203 7.39063 8.60234 6.8041C9.24687 6.23906 10.0977 5.92969 11 5.92969C11.9023 5.92969 12.7531 6.24121 13.3977 6.8041C14.068 7.39063 14.4375 8.1791 14.4375 9.02344C14.4375 10.2652 13.6189 11.3824 12.3514 11.8701Z" fill="#C9C9C9"/>
</svg>

<svg width="22" height="22" fill="none" xmlns="http://www.w3.org/2000/svg"><path d="M11 1.375c-5.315 0-9.625 4.31-9.625 9.625s4.31 9.625 9.625 9.625 9.625-4.31 9.625-9.625S16.315 1.375 11 1.375zm0 15.21a.86.86 0 1 1 0-1.717.86.86 0 0 1 0 1.718zm1.351-4.715a1.038 1.038 0 0 0-.664.963v.487a.172.172 0 0 1-.171.172h-1.032a.172.172 0 0 1-.171-.172v-.462a2.402 2.402 0 0 1 1.547-2.273c.73-.281 1.203-.893 1.203-1.562 0-.947-.927-1.718-2.063-1.718-1.137 0-2.063.771-2.063 1.718v.164a.172.172 0 0 1-.171.172H7.734a.172.172 0 0 1-.171-.172v-.164c0-.844.369-1.632 1.04-2.219.644-.565 1.495-.874 2.397-.874.902 0 1.753.311 2.398.874.67.587 1.04 1.375 1.04 2.22 0 1.241-.82 2.358-2.087 2.846z" fill="#C9C9C9"/></svg>
